X: 1
T: Dr Mackay's Farewell to Creagorry
T: Dark Isle (Eilean Dorcha)
T: Away to the Westward
C: Iain MacLachlan 1958
R: air, waltz
Z: 2020 John Chambers <jc:trillian.mit.edu>
S: https://www.facebook.com/groups/Fiddletuneoftheday/ 2020-11-13
S: https://www.facebook.com/groups/Fiddletuneoftheday/photos/
M: 3/4
L: 1/8
K: Am
E2 "^A"|\
"Am"A3 B A2 | "Em"G3 A G2 | "C"E C3 E2 | "G"D4 GA |\
    B3 A G2 | "Bm"B d3 D2 | "Em"B4  dB | "D"A4 ||
E2 |\
"Am"A3 B A2 | "Em"G3 A G2 | "C"E C3 E2  | "G"D4 GA |\
    B4   dB | "D7"A4  B>A | "C"G3 A G>F | "G"G2 B2 |]
c2 "^B"|\
"G"d3 D D2 |    B2 A2 G2 | "C"E C3 DE |  "G"D4 GA |\
   B3 A G2 | "Bm"B d3 D2 | "Em"B4  dB | "D7"A4 ||
E2 |\
"Am"A3 B A2 | "Em"G3 A G2 | "C"E  C3 E2 | "G"D4 GA |\
    B4   dB | "D7"A4   BA | "C"G3 A G>F | "G"G4 |]
